X: 38819
T: Sullivan's Quay
R: reel
M: 4/4
K: Dmajor
|:ABAF EFED|CDEF GFGB|ADDD FGAF|EDCB, (3:2 A,B,CEG|
FDDD FGAd|BGGF EEED|CDEF GABG|ABBA ^GAce:|
|:d3f bfaf|eAAA cdef|gBBA ABBA|cA(3:2ABA (3:2Bcdeg|
(3:2fefec dfaf|gfed cAB/c/d|cdef gbag|fdBA ^GABc:|

